view/frontend/web/svg/flags/ls.svg

<svg width="24" height="24" viewbox="0 0 20 15" viewBox="0 0 20 15" fill="none" xmlns="http://www.w3.org/2000/svg">
<g clip-path="url(#clip0_270_60862)">
<rect width="20" height="15" fill="white"/>
<path fill-rule="evenodd" clip-rule="evenodd" d="M0 10H20V15H0V10Z" fill="#55BA07"/>
<path fill-rule="evenodd" clip-rule="evenodd" d="M0 5H20V10H0V5Z" fill="#F7FCFF"/>
<path fill-rule="evenodd" clip-rule="evenodd" d="M0 0H20V5H0V0Z" fill="#3D58DB"/>
<path fill-rule="evenodd" clip-rule="evenodd" d="M9.53125 5.15018C9.20458 5.23789 9.03207 5.46366 9.03207 5.8631C9.03207 6.3196 9.25622 6.74808 9.53125 6.96905V5.15018ZM10.3125 6.95683C10.5799 6.73281 10.7948 6.3123 10.7948 5.86427C10.7948 5.47631 10.625 5.25156 10.3125 5.1583V6.95683ZM10.2862 4.83267C10.7977 4.9463 11.1678 5.29465 11.1678 5.86062C11.1678 6.27227 10.972 6.77269 10.6684 7.1161L12.1895 8.60799L12.5647 8.48445L13.125 9.33424C13.125 9.33424 11.7088 10 9.95839 10C8.20798 10 6.875 9.33424 6.875 9.33424L7.35197 8.60799L7.73718 8.73426L9.1484 7.14197C8.83153 6.79818 8.62563 6.28273 8.62563 5.86062C8.62563 5.27463 9.02245 4.92192 9.56212 4.8215C9.62152 4.68152 9.76023 4.58334 9.92187 4.58334C10.0878 4.58334 10.2295 4.68677 10.2862 4.83267ZM7.50104 8.93522L7.34255 9.15552H7.65103L7.50104 8.93522ZM7.68172 9.24246L7.40932 9.29728L7.68172 9.39217V9.24246ZM7.82066 8.92521L7.95992 9.25035L8.30587 9.15599L8.23728 9.02526L7.82066 8.92521ZM8.573 9.57369L8.06497 9.47353L8.00682 9.37589L8.38997 9.29249L8.573 9.57369ZM8.60264 9.10832L8.76056 9.39246L9.10775 9.28672L9.01117 9.15937L8.60264 9.10832ZM8.88734 9.63037L8.82518 9.51286L9.20942 9.41029L9.43053 9.68048L8.88734 9.63037ZM9.6048 9.4353L10.1 9.30436L10.0391 9.19194H9.39639L9.6048 9.4353ZM9.78235 9.68561L9.70367 9.56398L10.1792 9.40827L10.4316 9.68561H9.78235ZM10.3841 9.20053L10.5362 9.38687L10.948 9.24411L10.8964 9.14684L10.3841 9.20053ZM11.2779 9.5879L10.7242 9.64946L10.6428 9.51195L11.0615 9.37445L11.2779 9.5879ZM11.2428 9.1106L11.3979 9.30127L11.7696 9.1106L11.6664 9.05334L11.2428 9.1106ZM11.5643 9.53664L11.4971 9.43352L11.8508 9.22125L12.0306 9.43352L11.5643 9.53664ZM11.9155 8.94356L12.1401 9.15788L12.3586 8.94356L12.2895 8.85636L11.9155 8.94356ZM12.2716 9.23147L12.4547 9.0503L12.5862 9.23147L12.2716 9.33268V9.23147Z" fill="#1D1D1D"/>
</g>
<defs>
<clipPath id="clip0_270_60862">
<rect width="20" height="15" fill="white"/>
</clipPath>
</defs>
</svg>

<svg width="24" height="24" viewbox="0 0 20 15" fill="none" xmlns="http://www.w3.org/2000/svg">
  <mask id="a" maskUnits="userSpaceOnUse" x="0" y="0" width="20" height="15">
    <path fill="#fff" d="M0 0h20v15H0z"/>
  </mask>
  <g mask="url(#a)" fill-rule="evenodd" clip-rule="evenodd">
    <path d="M0 10h20v5H0v-5z" fill="#55BA07"/>
    <path d="M0 5h20v5H0V5z" fill="#F7FCFF"/>
    <path d="M0 0h20v5H0V0z" fill="#3D58DB"/>
    <path d="M9.531 5.15c-.326.088-.499.314-.499.713 0 .457.224.885.5 1.106V5.15zm.781 1.807c.268-.224.483-.645.483-1.093 0-.388-.17-.612-.482-.706v1.799zm-.026-2.124c.512.113.882.462.882 1.028 0 .411-.196.912-.5 1.255l1.522 1.492.375-.124.56.85S11.709 10 9.958 10c-1.75 0-3.083-.666-3.083-.666l.477-.726.385.126 1.411-1.592c-.316-.344-.522-.86-.522-1.281 0-.586.396-.94.936-1.04a.39.39 0 01.724.012zM7.501 8.935l-.158.22h.308l-.15-.22zm.18.307l-.272.055.273.095v-.15zm.14-.317l.139.325.346-.094-.069-.13-.416-.1zm.752.649l-.508-.1-.058-.098.383-.084.183.282zm.03-.466l.158.284.347-.105-.097-.128-.408-.05zm.284.522l-.062-.117.384-.103.222.27-.544-.05zm.718-.195l.495-.13-.06-.113h-.644l.209.243zm.177.25l-.078-.121.475-.156.253.278h-.65zm.602-.484l.152.186.412-.143-.052-.097-.512.054zm.894.387l-.554.061-.081-.137.418-.138.217.214zm-.035-.477l.155.19.372-.19-.104-.058-.423.058zm.321.426l-.067-.103.354-.213.18.213-.467.103zm.351-.593l.225.214.219-.214-.07-.088-.373.088zm.357.287l.183-.18.131.18-.314.102V9.23z" fill="#1D1D1D"/>
  </g>
</svg>
